!!!COM: Ernest Chausson
!!!CNT: Francais
!!!TXO: Francais
!!!OTL: Les Heures
!!!LYR: Camille Mauclair
!!!ENC: Jacob Pegg
!!!YOR: 20 Songs for Voice and Piano, International Music Company, New York City, January, 1952
!!!ODT: 1896/
!!NB: Vocal melody and text only encoded.
**kern	**silbe
*clef G2	*
*k[b-]	*
*M4/4	*
=1	=1
1r	.
=2	=2
16r	.
{16f	{Les
16f	pa^-
16f	-les
8g	heu-
8g	-res
8b-	sous
8b-	la
8.a	lu-
16a}	-ne,}
=3	=3
8r	.
{16a	{En
16a	chan-
4dd	-tant
8c	jus-
16c	-qu'a
16c	mour-
4b-}	-rir,}
=4	=4
16r	.
{16a	{A-
16a	-vec
16a	un
8g	tris-
16g	-te
16g	sou-
4f	-ri-
4e}	-re,}
=5	=5
{4.e-	{Vont
16e-	une
16a	a\
8.a	u-
[16a	-ne
16a]	|
16r	.
16en	sur
16en	un
=6	=6
8.f	lac
16f	bai-
8e	-gne/
8e	de
4.g	lu-
8f}	-ne}
=7	=7
8r	.
{[8a	{Ou\,
16a]	|
16a	a-
16a	-vec
16a	un
8cc	som-
16cc	-bre
16cc	sou-
8b-	-ri-
8a}	-re,}
=8	=8
8r	.
{16a	{El-
16a	-les
8.b-	ten-
16a	-dent,
16a	une
16a	a\
[8bn	u-
8bn]	|
8a}	-ne,}
=9	=9
8r	.
{8cc	{Les
8cc	mains
8a	qui
8.f	me\-
16f	-nent
8f	a\
8f	mou-
=10	=10
[4f	-rir;
8f]}	|}
8r	.
4r	.
8r	.
{16a	{Et
16a	cer-
=11	=11
4bn	-tains,
[4cc	ble\-
16cc]	|
16cc	-mes
16cc	sous
16cc	la
8.bn	lune
16bn	Aux
=12	=12
8cc	yeux
8cc	d'i-
8bn	-ris
16f	sans
16bn	sou-
4bn	-ri-
16bn}	-re,}
16r	.
{8a	{Sa-
=13	=13
8a	-chant
8e	que
4f	l'heure
8f	est
16g	de
16a	mou-
4a	-rir,
=14	=14
4b-	Don-
8cc	-nent
8dd	leurs
4.dd	mains
16a	une
16a	a\
=15	=15
4.a	u-
8a}	-ne}
2r	.
=16	=16
8r	.
{8f	{Et
8g	tous
8a	s'en
4.a	vont
8a	dans
=17	=17
4b-	l'ombre
8b-	et
16b-	dans
16b-	la
8a	lu-
16a}	-ne}
16r	.
{8a	{Pour
16a	s'a
16a	lan-
=18	=18
[4dd	-guir
8.dd]	|
16dd	et
8cc	puis
8cc	mou-
4b-}	-rir}
=19	=19
16r	.
{16a	{A-
16a	-vec
16a	les
8g	Heu-
16g	-res
32g	une
32g	a\
4f	u-
16e-	-ne,
16r	.
8a	Les
=20	=20
4dd	Heu-
8a	-res
8f	au
4f	pa^-
8e	-le
8d	sou-
=21	=21
4d	-ri-
8d}	-re}
8r	.
2r	.
*-	*-
